X:362
T:Traveller
Z: id:dc-reel-338
M:C
L:1/8
K:G Major
G2BG dGBG|ABcd cBAG|Bdgd egdB|cBAG FADF|!
G2BG dGBG|ABcd cBAG|Bdgd egdB|cAFA G4:|!
g2dg Bgdg|g2bg agef|g2dg BgdB|cBAG FAD2|!
g2dg Bgdg|g2bg agef|gfga gfed|egfa g4:|!